src/icons/blockchains/dark/aptos.svg

<svg width="24" height="24" viewBox="0 0 24 24" fill="none" xmlns="http://www.w3.org/2000/svg">
  <rect width="24" height="24" rx="12" fill="#080530" />
  <mask
    id="mask0_1131_18504"
    style="mask-type: alpha"
    maskUnits="userSpaceOnUse"
    x="4"
    y="4"
    width="16"
    height="16"
  >
    <rect x="4" y="4" width="16" height="16" fill="#D9D9D9" />
  </mask>
  <g mask="url(#mask0_1131_18504)">
    <path
      d="M5 11.3804C5.13962 10.8093 5.24116 10.3016 5.38078 9.79386C5.40616 9.7304 5.57117 9.65423 5.67271 9.65423C6.63735 9.64155 7.58929 9.65423 8.55394 9.65423C9.65819 9.65423 10.7498 9.64155 11.854 9.65423C12.2729 9.66693 12.6029 9.54001 12.8694 9.19731C13.339 8.61345 13.4787 8.61345 13.961 9.18461C14.2402 9.52731 14.5575 9.66693 15.0018 9.65423C16.106 9.62885 17.223 9.65423 18.3272 9.64155C18.5303 9.64155 18.6446 9.69231 18.6826 9.8954C18.7842 10.365 18.8857 10.8347 19 11.3677C18.835 11.3677 18.7207 11.3677 18.6065 11.3677C17.058 11.3677 15.5222 11.3551 13.9737 11.3804C13.6437 11.3804 13.4152 11.2789 13.2121 11.025C12.7425 10.4285 12.5648 10.2635 11.9556 10.987C11.7017 11.2916 11.4225 11.3804 11.0544 11.3677C9.18856 11.3551 7.31005 11.3551 5.44424 11.3551C5.3427 11.3804 5.22847 11.3804 5 11.3804Z"
      fill="white"
    />
    <path
      d="M5.10156 13.2587C5.31734 13.2587 5.44426 13.2587 5.57119 13.2587C6.85314 13.2587 8.1224 13.246 9.40435 13.2587C9.79783 13.2587 10.1278 13.1698 10.369 12.8271C10.4325 12.7383 10.5086 12.6748 10.5848 12.586C10.8513 12.2941 11.0925 12.2687 11.3209 12.586C11.7017 13.1445 12.184 13.2714 12.8314 13.2587C14.7099 13.2206 16.5884 13.246 18.4669 13.246C18.5812 13.246 18.6953 13.246 18.9238 13.246C18.7208 13.8299 18.5431 14.3629 18.3399 14.8833C18.3146 14.9341 18.1877 14.9722 18.0988 14.9722C15.8268 14.9722 13.5548 14.9849 11.2829 14.9722C11.1305 14.9722 10.9655 14.8707 10.8513 14.7691C10.6863 14.6295 10.5594 14.4391 10.4071 14.2868C10.2167 14.0964 10.0009 14.0837 9.79783 14.2741C9.78513 14.2868 9.78513 14.2868 9.77244 14.2995C9.36628 14.9722 8.74434 15.0484 8.02087 15.0103C7.34816 14.9595 6.67544 14.9849 5.99004 15.0103C5.77427 15.0103 5.66004 14.9341 5.59657 14.7437C5.44426 14.2614 5.29195 13.7918 5.10156 13.2587Z"
      fill="white"
    />
    <path
      d="M6.44824 7.78786C9.101 4.13239 14.7746 4.01816 17.5543 7.76247C17.0593 7.76247 16.5769 7.81325 16.1073 7.73708C15.9042 7.71171 15.7265 7.45786 15.5742 7.28016C15.13 6.79783 15.0031 6.77246 14.5842 7.26746C14.2542 7.64824 13.8988 7.80056 13.3784 7.80056C11.208 7.77517 9.02484 7.78786 6.8544 7.78786C6.72748 7.78786 6.60055 7.78786 6.44824 7.78786Z"
      fill="white"
    />
    <path
      d="M6.93066 16.6979C7.34952 16.6852 7.53991 16.3806 7.76837 16.1267C8.12377 15.7206 8.33955 15.6952 8.65686 16.1267C8.98687 16.5963 9.40572 16.7106 9.95151 16.6979C12.1981 16.6725 14.4574 16.6852 16.704 16.6852C16.8182 16.6852 16.9324 16.6852 17.0594 16.6852C14.8001 19.4522 9.77381 19.871 6.93066 16.6979Z"
      fill="white"
    />
  </g>
</svg>

<svg
  xmlns="http://www.w3.org/2000/svg"
  width="24"
  height="24"
  fill="none"
  xmlns:v="https://vecta.io/nano"
>
  <rect width="24" height="24" rx="12" fill="#080530" />
  <mask id="A" maskUnits="userSpaceOnUse" x="4" y="4" width="16" height="16" mask-type="alpha">
    <path fill="#d9d9d9" d="M4 4h16v16H4z" />
  </mask>
  <g mask="url(#A)">
    <path
      d="M5 11.38l.381-1.587c.025-.063.19-.14.292-.14h2.881 3.3c.419.013.749-.114 1.015-.457.47-.584.609-.584 1.092-.013a1.18 1.18 0 0 0 1.041.47l3.325-.013c.203 0 .317.051.355.254L19 11.368h-.393c-1.549 0-3.084-.013-4.633.013a.88.88 0 0 1-.762-.355c-.47-.597-.647-.761-1.256-.038-.254.305-.533.393-.901.381l-5.61-.013c-.102.025-.216.025-.444.025zm.102 1.879h.47 3.833c.393 0 .723-.089.965-.432.063-.089.14-.152.216-.241.267-.292.508-.317.736 0 .381.559.863.685 1.511.673l5.635-.013h.457l-.584 1.637c-.025.051-.152.089-.241.089h-6.816c-.152 0-.317-.102-.432-.203-.165-.14-.292-.33-.444-.482-.19-.19-.406-.203-.609-.013l-.025.025c-.406.673-1.028.749-1.752.711-.673-.051-1.345-.025-2.031 0-.216 0-.33-.076-.393-.267l-.495-1.485zm1.346-5.471c2.653-3.655 8.326-3.77 11.106-.025-.495 0-.977.051-1.447-.025-.203-.025-.381-.279-.533-.457-.444-.482-.571-.508-.99-.013-.33.381-.685.533-1.206.533l-6.524-.013h-.406zm.483 8.91c.419-.013.609-.317.838-.571.355-.406.571-.431.888 0 .33.47.749.584 1.295.571l6.752-.013h.355c-2.259 2.767-7.286 3.186-10.129.013z"
      fill="#fff"
    />
  </g>
</svg>
